resources/svg/more.svg

<svg xmlns="http://www.w3.org/2000/svg" viewBox="0 0 24 24" fill="currentColor"><path fill="none" stroke="currentColor" stroke-width="2" d="M3,13 L3,11 L5,11 L5,13 L3,13 Z M11,12.9995001 L11,11 L12.9995001,11 L12.9995001,12.9995001 L11,12.9995001 Z M19,12.9995001 L19,11 L20.9995001,11 L20.9995001,12.9995001 L19,12.9995001 Z"/></svg>

<svg viewBox="0 0 24 24"><path fill="none" stroke="currentColor" stroke-width="2" d="M3 13v-2h2v2H3zm8 0v-2h2v2h-2zm8 0v-2h2v2h-2z"/></svg>
